illu2.svg

<svg width="430" height="375" viewBox="0 0 430 375" fill="none" xmlns="http://www.w3.org/2000/svg">
<path d="M419.509 361.292L214.762 245.308L212.816 10L417.563 125.984L419.509 361.292Z" fill="#FCE6E8"/>
<path d="M38.7807 348.836L26.7207 355.931L24.7923 120.62L36.8522 113.525L38.7807 348.836Z" fill="#FF5D6B"/>
<path d="M65.6398 333.034L53.5812 340.128L51.6527 104.818L63.7107 97.7235L65.6398 333.034Z" fill="#FF5D6B"/>
<path d="M92.4997 317.231L80.4404 324.326L78.5119 89.0155L90.5712 81.9207L92.4997 317.231Z" fill="#FF5D6B"/>
<path d="M119.36 301.429L107.301 308.523L105.372 73.2127L117.432 66.1179L119.36 301.429Z" fill="#FF5D6B"/>
<path d="M146.22 285.626L134.161 292.721L132.232 57.4106L144.292 50.3154L146.22 285.626Z" fill="#FF5D6B"/>
<path d="M173.08 269.823L161.021 276.918L159.092 41.6078L171.152 34.5126L173.08 269.823Z" fill="#FF5D6B"/>
<path d="M199.94 254.021L187.88 261.116L185.952 25.8053L198.011 18.7105L199.94 254.021Z" fill="#FF5D6B"/>
</svg>

<?xml version="1.0" encoding="UTF-8"?>
<svg id="Calque_1" xmlns="http://www.w3.org/2000/svg" version="1.1" viewBox="0 0 430 375">
  <!-- Generator: Adobe Illustrator 30.3.0, SVG Export Plug-In . SVG Version: 2.1.3 Build 182)  -->
  <defs>
    <style>
      .st0 {
        fill: #b44fd9;
      }

      .st1 {
        fill: #eee5f3;
      }
    </style>
  </defs>
  <path class="st1" d="M419.51,361.29l-204.75-115.98-1.95-235.31,204.75,115.98,1.95,235.31Z"/>
  <path class="st0" d="M38.78,348.84l-12.06,7.1-1.93-235.31,12.06-7.1,1.93,235.31Z"/>
  <path class="st0" d="M65.64,333.03l-12.06,7.09-1.93-235.31,12.06-7.09,1.93,235.31Z"/>
  <path class="st0" d="M92.5,317.23l-12.06,7.1-1.93-235.31,12.06-7.09,1.93,235.31Z"/>
  <path class="st0" d="M119.36,301.43l-12.06,7.09-1.93-235.31,12.06-7.09,1.93,235.31Z"/>
  <path class="st0" d="M146.22,285.63l-12.06,7.1-1.93-235.31,12.06-7.1,1.93,235.31Z"/>
  <path class="st0" d="M173.08,269.82l-12.06,7.1-1.93-235.31,12.06-7.1,1.93,235.31Z"/>
  <path class="st0" d="M199.94,254.02l-12.06,7.1-1.93-235.31,12.06-7.09,1.93,235.31Z"/>
</svg>
